tools/download-figma-icons/icons/action/package.svg

<svg width="24" height="24" viewBox="0 0 24 24" fill="none" xmlns="http://www.w3.org/2000/svg">
<path fill-rule="evenodd" clip-rule="evenodd" d="M13 21.4468V12.6178L22 8.11775V17.3558L13 21.4468ZM2 8.11775L11 12.6178V21.4468L2 17.3558V8.11775ZM12 2.11775L15.264 3.74975L6.5 8.13175L3.236 6.49975L12 2.11775ZM12 10.8818L8.736 9.24975L17.5 4.86775L20.764 6.49975L12 10.8818ZM23.93 6.15375C23.919 6.12275 23.905 6.09475 23.892 6.06575C23.85 5.98175 23.799 5.90475 23.735 5.83475C23.721 5.81775 23.709 5.79875 23.693 5.78275C23.621 5.71375 23.54 5.65175 23.447 5.60575L12.447 0.10575C12.166 -0.03525 11.834 -0.03525 11.553 0.10575L0.553 5.60575C0.46 5.65175 0.379 5.71375 0.307 5.78275C0.291 5.79875 0.279 5.81775 0.265 5.83475C0.201 5.90475 0.149 5.98175 0.108 6.06675C0.094 6.09475 0.081 6.12275 0.07 6.15375C0.029 6.26375 0 6.37875 0 6.49975V17.9998C0 18.3918 0.229 18.7477 0.586 18.9097L11.586 23.9097C11.718 23.9697 11.858 23.9998 12 23.9998C12.142 23.9998 12.282 23.9697 12.414 23.9097L23.414 18.9097C23.771 18.7477 24 18.3918 24 17.9998V6.49975C24 6.37875 23.971 6.26375 23.93 6.15375Z" fill="black"/>
</svg>

<svg xmlns="http://www.w3.org/2000/svg" width="24" height="24" fill="none" viewBox="0 0 24 24"><path fill="currentColor" fill-rule="evenodd" d="M13 21.447v-8.83l9-4.5v9.239zM2 8.117l9 4.5v8.83l-9-4.091zm10-6 3.264 1.633L6.5 8.132 3.236 6.5zm0 8.765L8.736 9.25 17.5 4.868 20.764 6.5zm11.93-4.728q-.017-.046-.038-.088a1 1 0 0 0-.157-.231q-.02-.027-.042-.052a1 1 0 0 0-.246-.177l-11-5.5a1 1 0 0 0-.894 0l-11 5.5a1 1 0 0 0-.246.177q-.023.025-.042.052a1 1 0 0 0-.195.319A1 1 0 0 0 0 6.5V18a1 1 0 0 0 .586.91l11 5a1 1 0 0 0 .828 0l11-5A1 1 0 0 0 24 18V6.5a1 1 0 0 0-.07-.346" clip-rule="evenodd"/></svg>
